icon-svg/ceiling-round.svg

<?xml version="1.0" encoding="UTF-8"?>
<svg width="32px" height="32px" viewBox="0 0 32 32" version="1.1" fill="#44739e" xmlns="http://www.w3.org/2000/svg" xmlns:xlink="http://www.w3.org/1999/xlink">
            <path d="M23.163,20.2435 C19.233,21.2515 12.778,21.2515 8.845,20.2435 C4.966,19.2495 5.085,17.6675 9.014,16.7085 C12.889,15.7635 19.1,15.7635 22.979,16.7085 C26.912,17.6675 27.038,19.2495 23.163,20.2435 M27.925,12.0015 C27.633,11.2515 26.44,10.5315 24.378,9.9615 C19.72,8.6795 12.265,8.6795 7.615,9.9615 C5.553,10.5315 4.367,11.2515 4.075,12.0015 C4.022,12.1285 4,12.2485 4,12.3765 L4,16.6265 C4,16.7535 4.022,19.8815 4.075,20.0015 C4.36,20.7215 5.463,21.4185 7.412,21.9805 C12.13,23.3395 19.878,23.3395 24.595,21.9805 C26.537,21.4185 27.64,20.7215 27.925,20.0015 C27.977,19.8815 28,19.7535 28,19.6265 L28,12.3765 C28,12.2485 27.977,12.1285 27.925,12.0015"></path>
</svg>

<svg xmlns="http://www.w3.org/2000/svg" fill="#44739e" viewBox="0 0 24 24"><path d="M23.163 20.2435c-3.93 1.008-10.385 1.008-14.318 0-3.879-.994-3.76-2.576.169-3.535 3.875-.945 10.086-.945 13.965 0 3.933.959 4.059 2.541.184 3.535m4.762-8.242c-.292-.75-1.485-1.47-3.547-2.04-4.658-1.282-12.113-1.282-16.763 0-2.062.57-3.248 1.29-3.54 2.04a.94.94 0 0 0-.075.375v4.25c0 .127.022 3.255.075 3.375.285.72 1.388 1.417 3.337 1.979 4.718 1.359 12.466 1.359 17.183 0 1.942-.562 3.045-1.259 3.33-1.979.052-.12.075-.248.075-.375v-7.25c0-.128-.023-.248-.075-.375"/></svg>
